!! 00048] TT[KA
!! NN
!!!OTL: Taiyang chulai man tian hong
!!!ARE: Asia, China,ˇShandong, Chengwu, SÅdwesten, daher Ñhnl. wie Henanan)
!! Ethnic Group: Han
!! III, 323
!!!SCT: C0300B
!!!YEM: Copyright 1995, estate of Helmut Schaffrath.
**kern
*ICvox
*Ivox
*M2/4
*k[f#c#]
*D:
{8a
8a
8dd
16ee
16dd
=1
8a
8ee
4dd}
=2
{8cc#
16cc#
16cc#
8b
8a
=3
16a
16aa
16gg
16ff#
8ee
16ee
16dd
=4
8b
16b
16a
8g#
16b
16b
=5
4a
8a
8r}
=6
{8a
8a
4dd
=7
8a
8ee
4dd}
=8
{8a
4a
8dd
=9
8cc#
16cc#
16cc#
8b
8a
=10
8a
8f#
4e}
=11
{8dd
8a
8a
8dd
=12
16dd
16f#
16f#
16e
4d}
=13
{4a
8a
16ff#
16ff#
=14
8ff#
8ee
8ee
8dd
=15
8dd
8a
16ee
16dd
16b
16b
=16
4.a
16g
16f#
=17
2e}
=18
{8a
8a
8dd
16ee
16dd
=19
8a
8ee
16dd
16ee
8dd
=20
4dd
8b
8a}
=21
{16a
16f#
16f#
16e
8d
8d
=22
16e
16d
16e
16f#
8a
16f#
16a
=23
8a
8dd
16ee
16ff#
16ee
16dd
=24
8a
16b
16b
16a
16r
16f#
16f#
=25
16e
16r
16e
16e
16d
16r}
{16dd
16dd
=26
16ee
16ff#
16ee
16dd
8a
16b
16b
=27
16a
16aa
16gg
16ff#
8ee
16ee
16dd
=28
8b
16b
16a
8a
16b
16b
=29
4.a}
{16g
16f#
=30
16e
16r
16e
16e
16d
16r
16e
16e
=31
8d
8r
8d
8r}
=32
{8ee
8aa
8gg#
8aa
=33
4ee
8dd
8ee
=34
4.dd
8b
=35
2a
=36
8a
4.r}
==
!!!AGN: Xiaodiao, Baolengdiao
!! Wenig Verzierungen. Vorspiel weggelassen.
!!    Fuellwoerter haben besonderen Charakter. "Baoren" kommt aus den
!!    Fuellwoertern. Die Weise ist aehnlich wie in der Henan- Lokaloper.
!!    Auftakt!! Zhuandiao: D GONG-A ZHI
!!!ONB: ESAC (Essen Associative Code) Database: CHINA
!!!AMT: simple duple
!!!AIN: vox
!!!EED: Helmut Schaffrath
!!!EEV: 1.0
*-
